X:34
T:Kenmure's On and Awa, Willie
Z:Jack Campin, 2006, http://www.campin.me.uk/
M:6/8
L:1/8
Q:3/8=120
K:G
B|G>AB gdB|d2d d2B|G>AB gdB|A2A A2B|G>AB gdB|d>ef g>fe|d>cB c>BA|G2G G2:|
d|g2d  edB|d2d def|g2d  edB|A2A A2f|g2d  edB|d>ef g>fe|d>cB c>BA|G2G G2:|

